digital-namazu-no-henka/usr/share/asteroid-launcher/watchfaces-img/digital-namazu-no-henka-9.svg

<?xml version="1.0" encoding="UTF-8" standalone="no"?>
<svg
   width="1000"
   height="1000"
   viewBox="0 0 264.583 264.583"
   version="1.1"
   id="svg4"
   sodipodi:docname="digital-namazu-no-henka-9.svg"
   inkscape:version="1.2.1 (9c6d41e410, 2022-07-14, custom)"
   xml:space="preserve"
   xmlns:inkscape="http://www.inkscape.org/namespaces/inkscape"
   xmlns:sodipodi="http://sodipodi.sourceforge.net/DTD/sodipodi-0.dtd"
   xmlns="http://www.w3.org/2000/svg"
   xmlns:svg="http://www.w3.org/2000/svg"><defs
     id="defs8" /><sodipodi:namedview
     id="namedview6"
     pagecolor="#464646"
     bordercolor="#000000"
     borderopacity="0.25"
     inkscape:showpageshadow="2"
     inkscape:pageopacity="0"
     inkscape:pagecheckerboard="0"
     inkscape:deskcolor="#d1d1d1"
     showgrid="false"
     inkscape:zoom="0.5"
     inkscape:cx="456"
     inkscape:cy="453"
     inkscape:window-width="1920"
     inkscape:window-height="1003"
     inkscape:window-x="0"
     inkscape:window-y="0"
     inkscape:window-maximized="1"
     inkscape:current-layer="svg4"
     showguides="true"><sodipodi:guide
       position="132.2915,268.61789"
       orientation="1,0"
       id="guide3420"
       inkscape:locked="false" /></sodipodi:namedview><path
     id="rect1697"
     style="opacity:1;fill:#ffffff;stroke-width:1.33981;stroke-linecap:square;stroke-linejoin:bevel"
     d="m 96.8261,0 h 64.93346 v 38.073939 h -61.4181 L 71.944414,9.6025457 C 74.367402,7.1795588 84.097889,0 96.8261,0 Z"
     sodipodi:nodetypes="cccccc" /><path
     id="path2522"
     style="opacity:1;fill:#ffffff;stroke-width:1.33981;stroke-linecap:square;stroke-linejoin:bevel"
     d="m 58.746115,40.99379 v 88.29744 H 76.679737 L 96.82005,109.53284 V 42.724046 L 67.762314,13.728659 c -1.359956,1.637343 -9.016207,7.712359 -9.016199,27.265131 z"
     sodipodi:nodetypes="ccccccc" /><path
     id="path3349"
     style="opacity:1;fill:#ffffff;stroke-width:1.33981;stroke-linecap:square;stroke-linejoin:bevel"
     d="m 96.8261,264.583 h 64.93346 v -38.07395 h -61.4181 l -28.397046,28.4714 c 2.422988,2.42299 12.153475,9.60255 24.881686,9.60255 z"
     sodipodi:nodetypes="cccccc" /><path
     id="path2528"
     style="opacity:1;fill:#ffffff;stroke-width:1.33981;stroke-linecap:square;stroke-linejoin:bevel"
     d="M 205.83868,36.568492 V 129.29123 H 187.90505 L 167.76475,109.53284 167.7587,0 c 19.14863,0 38.07999,16.605512 38.07999,36.568492 z"
     sodipodi:nodetypes="cccccc" /><path
     id="path2530"
     style="opacity:1;fill:#ffffff;stroke-width:1.33981;stroke-linecap:square;stroke-linejoin:bevel"
     d="m 205.83868,228.0145 v -92.72273 h -17.93363 l -20.1403,19.7584 -0.006,109.53283 c 19.14863,0 38.07999,-16.60551 38.07999,-36.5685 z"
     sodipodi:nodetypes="cccccc" /><path
     id="rect3332"
     style="opacity:1;fill:#ffffff;stroke-width:0.405785;stroke-linecap:square;stroke-linejoin:bevel"
     d="m 101.31875,113.70244 h 60.44081 l 19.50201,18.25759 -19.50201,18.7136 H 101.31875 L 81.883939,132.23405 Z"
     sodipodi:nodetypes="ccccccc" /></svg>

<svg width="1000" height="1000" viewBox="0 0 264.583 264.583" xml:space="preserve" xmlns="http://www.w3.org/2000/svg"><path style="opacity:1;fill:#fff;stroke-width:1.33981;stroke-linecap:square;stroke-linejoin:bevel" d="M96.826 0h64.934v38.074H100.34L71.944 9.603C74.367 7.18 84.098 0 96.826 0ZM58.746 40.994v88.297H76.68l20.14-19.758V42.724L67.762 13.729c-1.36 1.637-9.016 7.712-9.016 27.265zM96.826 264.583h64.934v-38.074H100.34L71.944 254.98c2.423 2.423 12.154 9.603 24.882 9.603zM205.839 36.568v92.723h-17.934l-20.14-19.758L167.759 0c19.148 0 38.08 16.606 38.08 36.568zM205.839 228.014v-92.722h-17.934l-20.14 19.758-.006 109.533c19.148 0 38.08-16.606 38.08-36.569z"/><path style="opacity:1;fill:#fff;stroke-width:.405785;stroke-linecap:square;stroke-linejoin:bevel" d="M101.319 113.702h60.44l19.503 18.258-19.502 18.714h-60.441l-19.435-18.44Z"/></svg>
